!!!!SEGMENT: pl-wtm--a-43-196-99--001-001_kazuro-stanislaw--25-piesni-dzieciecych-z-fortepianem-op-49-zuczek.krn
!!!cenid: 19xx:197
!!!COM: Kazuro, Stanisław
!!!COM-rismID: pe50047136
!!!CDT: 1881/08/02-1961/11/30
!!!CNT: Polish
!!!GTL: 25 Pieśni dziecięcych z fortepianem, op. 49
!!!OTL: Żuczek
!!!OMV: 001
!!!PDT: 1950
!!!AGN:
!!!YEC: Copyright 2022 Narodowy Instytut Fryderyka Chopina (https://polishscores.org)
!!!YEM: License CC-BY-4.0 (https://creativecommons.org/licenses/by/4.0)
!!!SMS-siglum: PL-Wtm
!!!SMS-shelfmark: A-43.196/99
!!!SMS-variant:
!!!SMS-altvar:
!!!SMS-shelfwork: 001-001 G
!!!NIFC-rismSourceID: 1001164821
!!!NIFC-rismChildID: 1001164821
!!!NIFC-islandoraID: pl-wtm:43198
!!!URL-pdf-islandora: https://repozytorium.nifc.pl/islandora/object/pl-wtm:43198/datastream/PDF/view
!!!URL-scan: https://polish.musicsources.pl/pl/lokalizacje/galeria/druki-muzyczne/22428/3 @EN{Scan on Polish Music Sources Website} @PL{Skany w portalu Dziedzictwo Muzyki Polskiej w otwartym dostępie}
!!!IIIF:
!!!ONB-nifc:
!!!AIN: 1 piano 1 vox
!!!key: C
!!!OMD: Con moto.
**kern	**kern	**dynam	**kern	**text	**text	**dynam
*part2	*part2	*part2	*part1	*part1	*part1	*part1
*staff3	*staff2	*staff2/3	*staff1	*staff1	*staff1	*staff1
*I"[Piano]	*I"[Piano]	*	*I"[Voice]	*	*	*
*I'pf	*I'pf	*	*I'V	*	*	*
*Ipiano	*Ipiano	*	*Ivox	*	*	*
*ICklav	*ICklav	*	*ICvox	*	*	*
*IGacmp	*IGacmp	*	*IGsolo	*	*	*
*>[A,B,A,B,A]	*>[A,B,A,B,A]	*>[A,B,A,B,A]	*>[A,B,A,B,A]	*>[A,B,A,B,A]	*>[A,B,A,B,A]	*>[A,B,A,B,A]
*>A	*>A	*>A	*>A	*>A	*>A	*>A
*clefF4	*clefG2	*	*clefG2	*	*	*
*k[]	*k[]	*	*k[]	*	*	*
*C:	*C:	*	*C:	*	*	*
*M2/4	*M2/4	*	*M2/4	*	*	*
=1	=1	=1	=1	=1	=1	=1
4C 4CC`>/	8r	mf	2r	.	.	.
.	8e 8c 8G/	.	.	.	.	.
4BB 4BBB`>/	8r	.	.	.	.	.
.	8e 8c 8G/	.	.	.	.	.
=2	=2	=2	=2	=2	=2	=2
4AA 4AAA`>/	8r	.	2r	.	.	.
.	8e 8c 8G/	.	.	.	.	.
4GG 4GGG`>/	8r	.	.	.	.	.
.	8e 8c 8G/	.	.	.	.	.
=3	=3	=3	=3	=3	=3	=3
*	*^	*	*	*	*	*
*	*	*	*	*	*v:1.3.	*v:2	*
8CC/L	16c/LL	16c\LL	f	8.c/	Wy-	Za	mf
.	16B/	16B\	.	.	.	.	.
8GJ 8E 8C/	16c/	16c\	.	.	.	.	.
.	16d/JJ	16d\JJ	.	16d/	-szedł	to	.
8GGL 8GGG`>/	8e/L	8dL 8B\	.	8e/	żu-	im	.
8GG#XJ 8GGG#X`>/	8fJ 8d/	8c\J	.	8f/	-czek	mu-	.
!!LO:LB:g=original
=4	=4	=4	=4	=4	=4	=4	=4
*	*	*	*	*	*v:1.3.	*v:2	*
8AAL 8AAA`>/	8g/L	4e 4c\	.	8g/	na	-sia-	.
8GGnJ 8GGGn`>/	8a/J	.	.	8a/	sło-	-łem	.
8FFL 8FFF`>/	8b/L	4d#X 4A\	.	8b\	-ne-	pła-	.
8F/J	8g/J	.	.	8g/	-czko	-cić	.
=5	=5	=5	=5	=5	=5	=5	=5
*^	*	*	*	*	*	*	*
8EE/L	4ryy	8ccL 8g 8c/	4ryy	.	8cc\	W zie-	Po	.
8BJ 8G/	.	8eeJ 8a 8f/	.	.	8ee\	-lo-	dwa-	.
4e/	8C\L	4gg 4g/	8dd\L	.	8dd\	-nym	-na-	.
.	8A\J	.	8cc\J	.	8cc\	pła-	-ście	.
=6	=6	=6	=6	=6	=6	=6	=6	=6
(16A/LL	4D\	4dd/	4a 4f#X\	.	4dd\	-szczy-	gro-	.
16B/	.	.	.	.	.	.	.	.
16c/	.	.	.	.	.	.	.	.
16d/JJ	.	.	.	.	.	.	.	.
8e/L	4G\	4g/	4fn\	.	4g/	-ku.	-szy	.
8d/J)	.	.	.	.	.	.	.	.
*v	*v	*	*	*	*	*	*	*
!!LO:LB:g=original
=7	=7	=7	=7	=7	=7	=7	=7
*	*	*	*^	*	*	*	*
*	*	*	*	*	*	*v:1.3.	*v:2	*
!	!	!	!LO:HP:b	!LO:HP:a	!	!	!	!
8AA/L	16a/LL	4e 4c\	<	<	8.a/	Nie	I	.
.	16b/	.	.	.	.	.	.	.
8eJ 8c 8A/	16cc/	.	.	.	.	.	.	.
.	16dd/JJ	.	.	.	16cc\	bierz-	je-	.
8GGL 8GGG/	4ee/	8b\L	[	[	8b\	-że	-szczem	.
8fJ 8B 8G/	.	8a\J	.	.	8a/	mnie	się	.
=8	=8	=8	=8	=8	=8	=8	=8	=8
!	!	!	!LO:HP:b	!LO:HP:a	!	!	!	!
8EEL 8EEE/	4gg 4cc/	4g\	<	<	8cc\	za	za-	.
8eJ 8c 8G/	.	.	.	.	8e/	skrzy-	-po-	.
8EE-XL 8EEE-X/	4aa 4cc#X/	8a\L	[	[	8a/	-de-	-ży-	.
8e-XJ 8B-X 8G 8E-X/	.	8g\J	.	.	8g/	-łka,	-czył	.
*	*	*	*v	*v	*	*	*	*
=9	=9	=9	=9	=9	=9	=9	=9
8GGL 8GGG/	4bbn 4a/	8ff\L	f	8f/	Mi-	U	f
8fJ 8Bn 8G/	.	8ee\J	.	8e/	-ły	tej	.
8BBL 8BBB/	8ggL 8dd/	8g\L	.	8g,/	mój	pstrej	.
8dJ 8G/	8eeJ 8b/	8f\J	.	8e/	chło-	ko-	.
!!LO:PB:g=original
=10	=10	=10	=10	=10	=10	=10	=10
*^	*	*	*	*	*	*	*
*	*	*	*	*	*	*v:1.3.	*v:2	*
(8c\L	4ryy	4cc 4a-X 4f 4d/	4ryy	>	4d/	-pczy-	-ko-	.
8B\J	.	.	.	.	.	.	.	.
4c 4G/)	4C\	4cc/	4g 4e\	]	4c/	-ku.	-szy.	.
!	!	!LO:TX:a:Bi:rj:t=Fine.	!	!	!	!	!	!
*v	*v	*	*	*	*	*	*	*
=11||	=11||	=11||	=11||	=11||	=11||	=11||	=11||
*	*	*	*	*	*v:1	*v:2	*
8GGL 8GGG/	16dd\LL	4ryy	mf	8.d/	Nie	Jak	mf
.	16ee\	.	.	.	.	.	.
8eJ 8B 8G/	16ff#X\	.	.	.	.	.	.
.	16gg\JJ	.	.	16e/	bierz-	u-	.
8f#XL 8d 8A\	8aaL 8ee/	8cc\L	.	8f#X/	-że	-szy-	.
8gJ 8B\	8ggJ 8dd/	8b\J	.	8g/	mnie	-ły,	.
=12	=12	=12	=12	=12	=12	=12	=12
8AAL 8AAA`>/	8cccL 8ff#X`/	8cc\L	.	8a/	za	wy-	.
8BBJ 8BBB`>/	8bbJ 8dd#X`/	8b\J	.	8b\	skrzy-	-kro-	.
8CL 8CC`>/	8aaL 8ee`/	4a\	.	8cc\	-deł-	-i-	.
8f#XJ 8d/	8ggJ 8ee/	.	.	8a/	-ka,	-ły,	.
!!LO:LB:g=original
=13	=13	=13	=13	=13	=13	=13	=13
*	*	*	*	*	*v:1	*v:2	*
8EL 8EE/	16gg/LL	4b\	.	8b\	Bo	Tak	.
.	16ff#X/	.	.	.	.	.	.
8gJ 8e 8B/	16ee/	.	.	8ee\	mam	pła-	.
.	16gg/JJ	.	.	.	.	.	.
16BB/LL	8ff#/L	8dd\L	.	8dd\	pła-	-szczyk	.
16C#X/	.	.	.	.	.	.	.
16D/	8b/J	8g\J	.	8b\	-szczyk	za	.
16E/JJ	.	.	.	.	.	.	.
=14	=14	=14	=14	=14	=14	=14	=14
*^	*	*	*	*	*	*	*
16AA/LL	4ryy	8ccL 8a 8e/	4ryy	.	4a/	no-	kró-	.
16E/	.	.	.	.	.	.	.	.
16F#X/	.	8aJ 8e 8c/	.	.	.	.	.	.
16G/JJ	.	.	.	.	.	.	.	.
8A/L	8D\L	8f#X/L	8eL 8c\	.	4e,/	-wy.	-tki;	.
!	!	!LO:TUP:a:problem:klamra łukowa	!	!	!	!	!	!
8E/J	8EE\J	24g#X/L	8B\J	.	.	.	.	.
.	.	24f#/	.	.	.	.	.	.
.	.	24g#/JJ	.	.	.	.	.	.
*v	*v	*	*	*	*	*	*	*
=15	=15	=15	=15	=15	=15	=15	=15
8AAL 8AAA/	16a/LL	4ryy	mp >	8.cc\	Szy-	Je-	mp >
.	16g#X/	.	.	.	.	.	.
8eJ 8c 8A/	16a/	.	.	.	.	.	.
.	16b/JJ	.	.	16b\	-ły	-szcze	.
8F#X\L	8ccL 8a/	8d#X\L	.	8a,/	mi	im	.
8G\J	8bJ 8g#/	8dn\J	.	8g/	go	mu-	]]
!!LO:LB:g=original
=16	=16	=16	=16	=16	=16	=16	=16
*	*	*	*	*	*v:1	*v:2	*
8D\L	(8a#XL 8f#X/	4c\	.	8f#X/	dwa	-sia-	.
8D#X\J	8anJ 8fn/	.	.	8a/	chra-	-łem	.
8E\L	8g#XL 8e/	4B\	.	8e/	-bą-	do-	.
8F\J	8gnJ 8d/)	.	]	8d/	-szcze,	-dać	]
=17	=17	=17	=17	=17	=17	=17	=17
4c#X 4A#X 4F#X\	16en/LL	4ryy	<	8e/	A	Po	.
.	16f#X/	.	.	.	.	.	.
.	16a#X/	.	.	8f#X/	kra-	kie-	<
.	16dd/JJ	.	.	.	.	.	.
8An\L	8b/L	4f# 4cn\	.	8b\	-ja-	-li-	.
8D\J	8an/J	.	[[	8a/	-ły	-szku	[
=18	=18	=18	=18	=18	=18	=18	=18
8.Gn\L	8.g^/L	8.fnL 8.B\	f	4g/	so-	wó-	.
!	!	!	!	!LO:TX:a:i:t=rit.	!	!	!
16G#X\Jk	16gn^/Jk	16fJk 16B\	.	.	.	.	.
!	!LO:TX:b:Bi:t=rit.	!	!	!	!	!	!
8A\L	8g^/L	8fL 8c\	.	4g/	-wy.	-dki.	.
8B\J	8g'/J	8fJ 8d\	.	.	.	.	.
*	*v	*v	*	*	*	*	*
=:|!	=:|!	=:|!	=:|!	=:|!	=:|!	=:|!
*-	*-	*-	*-	*-	*-	*-
!!!system-decoration: s1{(s2,s3)}
!!!RDF**kern: > = above
!!!ENC: Andrzej Gręziak
!!!END: 2025-03-26
!!!EED: Marta Lawrence
!!!EEV: 2025-03-31
